assets/emojis/NerdFace.svg

<svg width="137" height="126" viewBox="0 0 137 126" fill="none" xmlns="http://www.w3.org/2000/svg">
<circle cx="68.0752" cy="63.1904" r="62.3496" fill="#F9B42F"/>
<path opacity="0.3" fill-rule="evenodd" clip-rule="evenodd" d="M119.011 99.3618C107.689 110.953 91.8871 118.149 74.4042 118.149C39.9695 118.149 12.0546 90.2337 12.0546 55.799C12.0546 42.4033 16.2791 29.9943 23.4684 19.8315C12.4907 31.0707 5.72559 46.4425 5.72559 63.3943C5.72559 97.829 33.6405 125.744 68.0752 125.744C89.1142 125.744 107.719 115.323 119.011 99.3618Z" fill="#BC8417"/>
<path d="M42.1822 63.3981C44.8371 63.3981 46.9894 61.2458 46.9894 58.5909C46.9894 55.9359 44.8371 53.7837 42.1822 53.7837C39.5273 53.7837 37.375 55.9359 37.375 58.5909C37.375 61.2458 39.5273 63.3981 42.1822 63.3981Z" fill="#2C2A46"/>
<path d="M92.8218 63.3981C95.4768 63.3981 97.629 61.2458 97.629 58.5909C97.629 55.9359 95.4768 53.7837 92.8218 53.7837C90.1669 53.7837 88.0146 55.9359 88.0146 58.5909C88.0146 61.2458 90.1669 63.3981 92.8218 63.3981Z" fill="#2C2A46"/>
<path d="M103.658 26.4152C95.7399 26.4285 88.0987 29.3327 82.1691 34.5827C76.2394 39.8327 72.4289 47.0674 71.453 54.9288C70.0131 54.782 68.5657 54.723 67.1186 54.7523C66.38 54.7116 65.6397 54.7116 64.9011 54.7523C63.8724 46.3953 59.649 38.7615 53.1166 33.4521C46.5843 28.1428 38.2506 25.5705 29.8638 26.2749C21.4769 26.9792 13.6885 30.9055 8.13235 37.23C2.57615 43.5545 -0.316111 51.786 0.0622419 60.1976C0.440595 68.6092 4.06017 76.5475 10.1617 82.3472C16.2632 88.1469 24.3726 91.3574 32.7888 91.3053C41.205 91.2532 49.2741 87.9424 55.3033 82.0676C61.3326 76.1927 64.8537 68.2102 65.1279 59.7945C65.7909 59.7549 66.4556 59.7549 67.1186 59.7945C68.4902 59.7681 69.862 59.8271 71.2262 59.971C71.439 66.3439 73.5225 72.5131 77.2169 77.709C80.9113 82.905 86.0531 86.8978 92.0008 89.1893C97.9486 91.4809 104.439 91.9698 110.663 90.595C116.886 89.2203 122.568 86.0428 126.998 81.4588C131.429 76.8749 134.412 71.0874 135.576 64.8182C136.74 58.5491 136.034 52.0757 133.545 46.2056C131.056 40.3355 126.894 35.3285 121.579 31.8092C116.265 28.2898 110.032 26.4138 103.658 26.4152ZM32.696 86.3669C27.2684 86.3669 21.9627 84.7567 17.4498 81.74C12.9369 78.7232 9.41954 74.4353 7.34249 69.4186C5.26544 64.4019 4.72199 58.8817 5.78086 53.556C6.83973 48.2303 9.45337 43.3383 13.2913 39.4987C17.1291 35.6591 22.0189 33.0443 27.3422 31.9849C32.6655 30.9256 38.1833 31.4693 43.1977 33.5472C48.2121 35.6252 52.4981 39.1442 55.5135 43.6591C58.5289 48.174 60.1383 53.4821 60.1383 58.9122C60.125 66.1895 57.2295 73.165 52.0859 78.3109C46.9424 83.4568 39.97 86.3536 32.696 86.3669ZM103.658 86.3669C98.2337 86.352 92.9355 84.7291 88.4326 81.7032C83.9296 78.6774 80.4241 74.3843 78.3586 69.3663C76.2931 64.3483 75.7605 58.8305 76.8279 53.5098C77.8952 48.1891 80.5148 43.3042 84.3557 39.4721C88.1966 35.6401 93.0865 33.0327 98.4077 31.9795C103.729 30.9263 109.243 31.4744 114.253 33.5546C119.263 35.6348 123.544 39.1537 126.556 43.667C129.568 48.1802 131.176 53.4853 131.176 58.9122C131.173 62.523 130.458 66.0978 129.073 69.4322C127.688 72.7666 125.66 75.7952 123.104 78.345C120.549 80.8947 117.516 82.9156 114.179 84.292C110.842 85.6685 107.267 86.3736 103.658 86.3669Z" fill="#0A0F1A"/>
<path d="M75.4796 80.5977H60.8075C59.6248 80.5977 59.1953 82.0305 60.0321 82.8994C61.8675 84.7869 64.35 86.9276 68.138 86.9276C71.9259 86.9276 74.4085 84.7696 76.2439 82.8994C77.0918 82.0305 76.6623 80.5977 75.4796 80.5977Z" fill="#2C2A46"/>
</svg>

<svg xmlns="http://www.w3.org/2000/svg" width="137" height="126" fill="none" viewBox="0 0 137 126"><circle cx="68.075" cy="63.19" r="62.35" fill="#f9b42f"/><path fill="#bc8417" fill-rule="evenodd" d="M119.011 99.362c-11.322 11.591-27.124 18.787-44.607 18.787-34.434 0-62.35-27.915-62.35-62.35 0-13.396 4.225-25.805 11.414-35.967C12.491 31.07 5.726 46.442 5.726 63.393c0 34.435 27.915 62.35 62.35 62.35 21.038 0 39.643-10.421 50.935-26.382" clip-rule="evenodd" opacity=".3"/><path fill="#2c2a46" d="M42.182 63.398a4.807 4.807 0 1 0 0-9.614 4.807 4.807 0 0 0 0 9.614m50.64 0a4.807 4.807 0 1 0 0-9.614 4.807 4.807 0 0 0 0 9.614"/><path fill="#0a0f1a" d="M103.658 26.415a32.5 32.5 0 0 0-21.489 8.168 32.53 32.53 0 0 0-10.716 20.346 36 36 0 0 0-4.334-.177q-1.11-.06-2.218 0a32.58 32.58 0 0 0-11.784-21.3A32.55 32.55 0 0 0 8.132 37.23a32.58 32.58 0 0 0 2.03 45.117 32.55 32.55 0 0 0 45.141-.28 32.58 32.58 0 0 0 9.825-22.272q.996-.06 1.99 0a33 33 0 0 1 4.108.176 32.5 32.5 0 0 0 5.99 17.738 32.443 32.443 0 0 0 49.781 3.75 32.49 32.49 0 0 0 6.547-35.253 32.47 32.47 0 0 0-11.965-14.397 32.44 32.44 0 0 0-17.921-5.394M32.696 86.367A27.43 27.43 0 0 1 17.45 81.74a27.466 27.466 0 0 1-4.158-42.241 27.44 27.44 0 0 1 29.906-5.952A27.45 27.45 0 0 1 55.514 43.66a27.46 27.46 0 0 1 4.624 15.253 27.5 27.5 0 0 1-8.052 19.399 27.5 27.5 0 0 1-19.39 8.056m70.962 0a27.43 27.43 0 0 1-15.225-4.664 27.466 27.466 0 0 1-4.077-42.231 27.44 27.44 0 0 1 29.897-5.917 27.44 27.44 0 0 1 12.303 10.112 27.46 27.46 0 0 1 4.62 15.245 27.485 27.485 0 0 1-16.997 25.38 27.5 27.5 0 0 1-10.521 2.075"/><path fill="#2c2a46" d="M75.48 80.598H60.807c-1.182 0-1.612 1.433-.775 2.301 1.836 1.888 4.318 4.029 8.106 4.029s6.27-2.158 8.106-4.029c.848-.868.418-2.301-.764-2.301"/></svg>
